client/img/icon/solid/info.svg

<?xml version="1.0" encoding="UTF-8"?>
<svg width="32px" height="32px" viewBox="0 0 32 32" version="1.1" xmlns="http://www.w3.org/2000/svg" xmlns:xlink="http://www.w3.org/1999/xlink">
    <!-- Generator: sketchtool 47 (45396) - http://www.bohemiancoding.com/sketch -->
    <title>icon/solid/info</title>
    <desc>Created with sketchtool.</desc>
    <defs>
        <path d="M16,11.5 C15.379,11.5 14.875,12.004 14.875,12.625 C14.875,13.246 15.379,13.75 16,13.75 C16.621,13.75 17.125,13.2465588 17.125,12.625 C17.125,12.0034412 16.6215588,11.5 16,11.5 Z M16,14.875 C15.379,14.875 14.875,15.3784412 14.875,16 L14.875,19.375 C14.875,19.996 15.379,20.5 16,20.5 C16.621,20.5 17.125,19.996 17.125,19.375 L17.125,16 C17.125,15.379 16.6215588,14.875 16,14.875 Z M16,7 C11.0376176,7 7,11.0376176 7,16 C7,20.9623824 11.0376176,25 16,25 C20.9623824,25 25,20.9623824 25,16 C25,11.0376176 20.9623824,7 16,7 Z M16,23.3125 C11.9674412,23.3125 8.6875,20.032 8.6875,16 C8.6875,11.968 11.9674412,8.6875 16,8.6875 C20.032,8.6875 23.3125,11.968 23.3125,16 C23.3125,20.032 20.032,23.3125 16,23.3125 Z" id="path-1"></path>
    </defs>
    <g id="Symbols" stroke="none" stroke-width="1" fill="none" fill-rule="evenodd">
        <g id="icon/solid/info">
            <mask id="mask-2" fill="white">
                <use xlink:href="#path-1"></use>
            </mask>
            <use id="info" fill="#000000" fill-rule="nonzero" xlink:href="#path-1"></use>
            <g id="color/solid/primary" mask="url(#mask-2)" fill="#4A90E2">
                <g transform="translate(-22.000000, -25.000000)" id="color">
                    <rect x="0" y="0" width="80" height="80"></rect>
                </g>
            </g>
        </g>
    </g>
</svg>

<?xml version="1.0" encoding="utf-8"?>
<!-- Generator: Adobe Illustrator 23.0.0, SVG Export Plug-In . SVG Version: 6.00 Build 0)  -->
<svg version="1.1" id="Layer_1" xmlns="http://www.w3.org/2000/svg" xmlns:xlink="http://www.w3.org/1999/xlink" x="0px" y="0px"
	 viewBox="0 0 32 32" style="enable-background:new 0 0 32 32;" xml:space="preserve">
<g>
	<path d="M16,11.5c-0.6,0-1.1,0.5-1.1,1.1s0.5,1.1,1.1,1.1s1.1-0.5,1.1-1.1S16.6,11.5,16,11.5z M16,14.9c-0.6,0-1.1,0.5-1.1,1.1v3.4
		c0,0.6,0.5,1.1,1.1,1.1s1.1-0.5,1.1-1.1V16C17.1,15.4,16.6,14.9,16,14.9z M16,7c-5,0-9,4-9,9s4,9,9,9s9-4,9-9S21,7,16,7z M16,23.3
		c-4,0-7.3-3.3-7.3-7.3S12,8.7,16,8.7c4,0,7.3,3.3,7.3,7.3S20,23.3,16,23.3z"/>
</g>
</svg>
